actions/16/draw-connector.svg

<?xml version="1.0" encoding="UTF-8"?>
<!-- Created with Inkscape (http://www.inkscape.org/) -->
<svg width="16" height="16" version="1.0" xmlns="http://www.w3.org/2000/svg" xmlns:cc="http://creativecommons.org/ns#" xmlns:dc="http://purl.org/dc/elements/1.1/" xmlns:rdf="http://www.w3.org/1999/02/22-rdf-syntax-ns#">
	<metadata>
		<rdf:RDF>
			<cc:Work rdf:about="">
				<dc:format>image/svg+xml</dc:format>
				<dc:type rdf:resource="http://purl.org/dc/dcmitype/StillImage"/>
				<dc:title/>
			</cc:Work>
		</rdf:RDF>
	</metadata>
	<defs>
		<radialGradient id="a" cx="-9447.1" cy="5037.9" r="9" gradientTransform="matrix(1.5555 0 0 1.3826 14703 -6957.5)" gradientUnits="userSpaceOnUse">
			<stop stop-color="#213851" stop-opacity=".9059" offset="0"/>
			<stop stop-color="#27303a" stop-opacity="0" offset="1"/>
		</radialGradient>
		<radialGradient id="b" cx="-9.6312" cy="9.2605" r="8.7344" gradientTransform="matrix(1.1449 0 0 1.1449 19.027 -2.6023)" gradientUnits="userSpaceOnUse">
			<stop stop-color="#ffffff" stop-opacity=".74858" offset="0"/>
			<stop stop-color="#ffffff" stop-opacity=".60511" offset="1"/>
		</radialGradient>
	</defs>
	<path d="m13 3v1 1h-2.4688l-4.0938 6.75-0.15625 0.25h-0.0625-0.21875-3v-1-1h-1v3 2h1v-2h3.75 0.28125l0.15625-0.25 4.0938-6.75h1.7188v2h1v-2-3z" color="#000000" fill="url(#b)" fill-opacity=".99858" style="block-progression:tb;font-variant-east_asian:normal;paint-order:normal;text-indent:0;text-transform:none"/>
	<path d="m15 2v1h-1v3h1v1h1v-1-3-1zm-5.2812 2-0.15625 0.25-4.0938 6.75h-2.4688v1h3 0.28125l0.15625-0.25 4.0938-6.75h2.4688v-1h-3zm-9.7188 5v1 3 1h1v-1h1v-3h-1v-1z" color="#000000" fill="#090d11" fill-opacity=".76621" style="font-variant-east_asian:normal;paint-order:normal"/>
	<path d="m15 2v1h-1v3h1v1h1v-1-3-1h-1zm-5.2812 2-0.15625 0.25-4.0938 6.75h-2.4688v1h3 0.28125l0.15625-0.25 4.0938-6.75h2.4688v-1h-3-0.28125zm-9.7188 5v1 3 1h1v-1h1v-3h-1v-1h-1z" color="#000000" fill="url(#a)" fill-opacity=".75328" style="font-variant-east_asian:normal;paint-order:normal"/>
</svg>

<?xml version="1.0" encoding="UTF-8" standalone="no"?>
<!-- Created with Inkscape (http://www.inkscape.org/) -->

<svg
   xmlns:dc="http://purl.org/dc/elements/1.1/"
   xmlns:cc="http://creativecommons.org/ns#"
   xmlns:rdf="http://www.w3.org/1999/02/22-rdf-syntax-ns#"
   xmlns:svg="http://www.w3.org/2000/svg"
   xmlns="http://www.w3.org/2000/svg"
   xmlns:sodipodi="http://sodipodi.sourceforge.net/DTD/sodipodi-0.dtd"
   xmlns:inkscape="http://www.inkscape.org/namespaces/inkscape"
   version="1.0"
   width="16"
   height="16"
   id="svg2"
   inkscape:version="0.48.3.1 r9886"
   sodipodi:docname="draw-connector.svg">
  <sodipodi:namedview
     pagecolor="#ffffff"
     bordercolor="#666666"
     borderopacity="1"
     objecttolerance="10"
     gridtolerance="10"
     guidetolerance="10"
     inkscape:pageopacity="0"
     inkscape:pageshadow="2"
     inkscape:window-width="1920"
     inkscape:window-height="1023"
     id="namedview32"
     showgrid="true"
     inkscape:zoom="45.254836"
     inkscape:cx="7.6234089"
     inkscape:cy="7.7126946"
     inkscape:window-x="-10"
     inkscape:window-y="35"
     inkscape:window-maximized="1"
     inkscape:current-layer="svg2"
     inkscape:snap-bbox="true"
     inkscape:bbox-paths="true"
     inkscape:bbox-nodes="true"
     inkscape:snap-bbox-edge-midpoints="true"
     inkscape:snap-bbox-midpoints="true"
     inkscape:object-paths="true"
     inkscape:snap-intersection-paths="true"
     inkscape:object-nodes="true"
     inkscape:snap-smooth-nodes="true"
     inkscape:snap-midpoints="true"
     inkscape:snap-object-midpoints="true"
     inkscape:snap-center="true"
     fit-margin-top="0"
     fit-margin-left="0"
     fit-margin-right="0"
     fit-margin-bottom="0"
     inkscape:snap-global="true">
    <inkscape:grid
       type="xygrid"
       id="grid3218"
       empspacing="5"
       visible="true"
       enabled="true"
       snapvisiblegridlinesonly="true"
       originx="-11px"
       originy="18px" />
  </sodipodi:namedview>
  <metadata
     id="metadata11">
    <rdf:RDF>
      <cc:Work
         rdf:about="">
        <dc:format>image/svg+xml</dc:format>
        <dc:type
           rdf:resource="http://purl.org/dc/dcmitype/StillImage" />
        <dc:title />
      </cc:Work>
    </rdf:RDF>
  </metadata>
  <defs
     id="defs4" />
  <path
     style="font-size:medium;font-style:normal;font-variant:normal;font-weight:normal;font-stretch:normal;text-indent:0;text-align:start;text-decoration:none;line-height:normal;letter-spacing:normal;word-spacing:normal;text-transform:none;direction:ltr;block-progression:tb;writing-mode:lr-tb;text-anchor:start;baseline-shift:baseline;color:#000000;fill:#f1f3f5;fill-opacity:0.90288714000000003;stroke:none;stroke-width:2;marker:none;visibility:visible;display:inline;overflow:visible;enable-background:accumulate;font-family:Sans;-inkscape-font-specification:Sans;fill-rule:nonzero"
     d="M 13,3 13,4 13,5 10.53125,5 6.4375,11.75 6.28125,12 6.21875,12 6,12 l -3,0 0,-1 0,-1 -1,0 0,3 0,2 1,0 0,-2 3.75,0 0.28125,0 L 7.1875,12.75 11.28125,6 13,6 l 0,2 1,0 0,-2 0,-3 z"
     id="path2991"
     inkscape:connector-curvature="0"
     sodipodi:nodetypes="cccccccccccccccccccccccccc" />
  <path
     inkscape:connector-curvature="0"
     style="color:#000000;fill:#27303a;fill-opacity:0.753280819999999968;fill-rule:nonzero;stroke:none;stroke-width:2;marker:none;visibility:visible;display:inline;overflow:visible;enable-background:accumulate"
     d="m 15,2 0,1 -1,0 0,3 1,0 0,1 1,0 0,-1 0,-3 0,-1 -1,0 z M 9.71875,4 9.5625,4.25 5.46875,11 3,11 3,12 6,12 6.28125,12 6.4375,11.75 10.53125,5 13,5 13,4 10,4 9.71875,4 z M 0,9 l 0,1 0,3 0,1 1,0 0,-1 1,0 0,-3 -1,0 0,-1 -1,0 z"
     id="path3801-8" />
</svg>
